!!!COM: Palestrina, Giovanni Perluigi da
!!!OPR: Missa Aeterna Christi munera
!!!OTL: Gloria
**kern	**kern	**kern	**kern
*Ibass	*Itenor	*Icalto	*Icant
!Bassus	!Tenor	!Altus	!Cantus
*clefF4	*clefGv2	*clefG2	*clefG2
*k[b-]	*k[b-]	*k[b-]	*k[b-]
*F:ion	*F:ion	*F:ion	*F:ion
*M4/2	*M4/2	*M4/2	*M4/2
=1	=1	=1	=1
1.F	0r	1r	1.f
.	.	[1c	.
2E	.	.	2g
=2	=2	=2	=2
2F	0r	2c]	2a
2D	.	2d	2f
1C	.	2e	2g
.	.	2c	2a
=3	=3	=3	=3
1G	0r	2d	1.b-
.	.	2e	.
2D	.	[1f	.
2F	.	.	2a
=4	=4	=4	=4
1C	1r	2f]	2g
.	.	2e	1cc
1r	[1f	1d	.
.	.	.	2b-
=5	=5	=5	=5
1c	2f]	0r	2a
.	2e	.	2.g
2B-	2d	.	.
.	.	.	4f
2A	2c	.	2f
=6	=6	=6	=6
2B-	2d	1r	1g
2c	2e	.	.
2F	1f	2r	2a
2F	.	2f	2a
=7	=7	=7	=7
2A	1r	2e	2cc
2B-	.	2d	2dd
2F	2r	[1f	[1cc
[2F	[2A	.	.
=8	=8	=8	=8
4F]	4A]	1f]	1cc]
4F	4A	.	.
2F	2A	.	.
2E	2c	2r	2r
2D	2d	[2f	[2a
=9	=9	=9	=9
1F	1c	2f]	2a]
.	.	2f	2a
1r	1r	2e	2cc
.	.	2d	2dd
=10	=10	=10	=10
2r	2r	0f	0cc
2F	2A	.	.
2F	2A	.	.
2F	2A	.	.
=11	=11	=11	=11
2E	2c	2r	2r
2D	2d	2.f	2.a
2.F	1c	.	.
.	.	4f	4a
.	.	2f	2a
4G	.	.	.
=12	=12	=12	=12
2A	2r	2e	2cc
2B-	2.f	2d	2dd
1F	.	1a	2.cc
.	4f	.	.
.	2f	.	.
.	.	.	4b
=13	=13	=13	=13
0r	2e	2g	2cc
.	2d	2f	2.dd
.	2e	2g	.
.	.	.	4cc
.	2f	[2a	[2cc
=14	=14	=14	=14
2r	1d	2a]	2cc]
2G	.	4g	2b
.	.	4f	.
2A	1c	1e	1cc
2c	.	.	.
=15	=15	=15	=15
2B-	2d	0r	0r
2A	2f	.	.
2G	2e	.	.
[2B-	[2d	.	.
=16	=16	=16	=16
4B-]	4d]	0r	0r
4A	4c	.	.
1G	2B-	.	.
.	1A	.	.
2F#	.	.	.
=17	=17	=17	=17
2G	4G	2r	2r
.	4A	.	.
2.G	4B-	2.g	2.b-
.	4c	.	.
.	1d	.	.
4G	.	4g	4b-
2G	.	2g	2b-
=18	=18	=18	=18
2d	0r	2f	2a
2d	.	2d	2f
2c	.	2e	2g
2A	.	2c	2a
=19	=19	=19	=19
1G	1r	2d	1b-
.	.	2e	.
2F	2r	2f	1a
[2F	[2f	[2a	.
=20	=20	=20	=20
2F]	2f]	2a]	2r
2F	2f	2a	1cc
1F	1f	1a	.
.	.	.	2cc
=21	=21	=21	=21
2c	2e	2g	1cc
2A	2c	2f	.
2G	2d	2g	2b-
2G	2e	2g	2g
=22	=22	=22	=22
1F	1f	2c	2a
.	.	2.f	2a
1r	1c	.	2g
.	.	4f	.
.	.	2e	[2cc
=23	=23	=23	=23
0r	0r	2f	4cc]
.	.	.	4cc
.	.	2d	2b
.	.	2e	2cc
.	.	2f	2a
=24	=24	=24	=24
0r	2r	2g	2b-
.	2A	2e	2cc
.	2.B-	2d	2dd
.	.	[2g	2b-
.	4c	.	.
=25	=25	=25	=25
1D	2d	4g]	1a
.	.	4f	.
.	2.d	2f	.
2.E	.	1e	1g
.	4c	.	.
.	[2c	.	.
4F	.	.	.
=26	=26	=26	=26
1G	2c]	0d	1g
.	4B	.	.
.	4A	.	.
1G	1B	.	1g
=27	=27	=27	=27
2C	1c	2e	0g
2.c	.	2.e	.
.	1r	.	.
4c	.	4e	.
2B-	.	2d	.
=28	=28	=28	=28
2A	0r	2e	0r
2G	.	2g	.
2A	.	2f	.
2c	.	2e	.
=29	=29	=29	=29
1B	2r	1d	1r
.	2d	.	.
2c	2e	1c	2r
2c	2g	.	2g
=30	=30	=30	=30
2A	4f	0r	2a
.	4e	.	.
2A	4e	.	2cc
.	8d	.	.
.	8c	.	.
1G	1d	.	1b
=31	=31	=31	=31
2A	2c	2r	2cc
2F	2c	2f	2a
1F	1c	1f	1a
=32	=32	=32	=32
1C	2c	2e	2g
.	2c	2e	2g
1r	2A	2f	2a
.	2G	2g	2b-
=33	=33	=33	=33
1r	4F	1a	1cc
.	4F	.	.
.	1f	.	.
[1c	.	2g	1cc
.	4e	[2g	.
.	4d	.	.
=34	=34	=34	=34
1c]	2.e	2g]	2g
.	.	2c	2a
.	4f	.	.
1G	1g	2d	1b-
.	.	2e	.
=35	=35	=35	=35
1A	1c	2f	2a
.	.	2.e	2.a
1B-	2d	.	.
.	.	4d	8g
.	.	.	8f
.	2d	[2d	2g
=36	=36	=36	=36
1A	1e	2d]	1a
.	.	2c#	.
2D	2f	2d	2r
2D	2d	2f	2a
=37	=37	=37	=37
1F	1c	1f	1a
2C	1c	2e	2g
2c	.	2e	2g
=38	=38	=38	=38
2A	1r	2f	2a
2G	.	2g	2b-
1F	2r	1a	1cc
.	[2f	.	.
=39	=39	=39	=39
2C	2f]	2g	2cc
1c	4e	1g	1cc
.	4d	.	.
.	2e	.	.
2F	2f	2a	2cc
=40	=40	=40	=40
1F	1f	1a	1cc
[1B-	2r	[1f	2.dd
.	[2d	.	.
.	.	.	4cc
=41	=41	=41	=41
2B-]	2d]	2f]	2b-
2F	2c	2f	2a
2G	2B-	2d	2g
2D	2A	2d	2f
=42	=42	=42	=42
2E	2G	1.c	2g
1F	2F	.	2.a
.	2A	.	.
.	.	.	4g
2BB-	4B-	2d	[2f
.	4A	.	.
=43	=43	=43	=43
1C	4G	1c	2f]
.	4F	.	.
.	2G	.	2e
2r	2F	1A	1f
2F	2c	.	.
=44	=44	=44	=44
2A	2f	0r	0r
2B-	2f	.	.
2c	2e	.	.
[2d	[2f	.	.
=45	=45	=45	=45
4d]	4f]	2r	1r
4A	4f	.	.
2c	2e	1a	.
1B-	1d	.	2r
.	.	2g	[2dd
=46	=46	=46	=46
1A	1e	2.a	2dd]
.	.	.	2cc#
.	.	4g	.
1B-	1r	2f	2.dd
.	.	[2g	.
.	.	.	4cc
=47	=47	=47	=47
2G	1r	2g]	2b
2A	.	1f	2a
2B-	2r	.	1g
2c	[2c	2e	.
=48	=48	=48	=48
1G	2c]	2.d	1g
.	2B	.	.
.	.	4d	.
1r	2c	2e	2r
.	2c	2e	[2cc
=49	=49	=49	=49
0r	2A	2f	2cc]
.	2G	2g	2b
.	[1F	2.a	2cc
.	.	.	2cc
.	.	4g	.
=50	=50	=50	=50
2r	1F]	2f	2a
2.c	.	2e	2a
.	2G	1d	1g
8B-	.	.	.
8A	.	.	.
2B	2d	.	.
=51	=51	=51	=51
2c	2e	2r	2g
2c	2g	2e	2g
2A	2g	2c	2a
2A	2f#	2c	2cc
=52	=52	=52	=52
1G	1g	2d	2cc
.	.	2d	2b
1c	1e	2c	2cc
.	.	2g	2cc
=53	=53	=53	=53
1F	1f	1a	1cc
2F	2f	2a	2cc
2F	2f	2a	2cc
=54	=54	=54	=54
2B-	2d	2f	2dd
2B-	2d	2g	2dd
2A	2e	2a	2cc
2G	2g	2d	2b-
=55	=55	=55	=55
2A	2.f	2a	2cc
1B-	.	2.f	2.dd
.	4e-	.	.
.	2d	.	.
.	.	8e-	4cc
.	.	8f	.
2E-	2e-	2g	[2b-
=56	=56	=56	=56
1F	1c	0f	2b-]
.	.	.	2a
2r	2B-	.	1b-
2B-	2d	.	.
=57	=57	=57	=57
2A	2c	0r	0r
2G	2B-	.	.
2F	2c	.	.
2E	2c	.	.
=58	=58	=58	=58
1D	1d	2r	2r
.	.	2f	2a
1r	1r	2e	2g
.	.	2d	2f
=59	=59	=59	=59
1r	2r	2c	2g
.	2d	2B-	2g
2r	2e	1A	1a
2A	2f#	.	.
=60	=60	=60	=60
2B-	2g	0r	1r
2c	1g	.	.
1d	.	.	1a
.	2f#	.	.
=61	=61	=61	=61
2G	2g	1r	2b-
2A	4f	.	2cc
.	4e	.	.
2.B-	2d	2r	1dd
.	[2g	2d	.
8A	.	.	.
8B-	.	.	.
=62	=62	=62	=62
2c	2g]	2e	2g
2A	2.f	2f	2a
1G	.	1g	1b-
.	8e	.	.
.	8d	.	.
.	2e	.	.
=63	=63	=63	=63
1F	2f	2c	1a
.	2A	2.f	.
1r	2B-	.	1g
.	.	8e	.
.	.	8d	.
.	2c	2e	.
=64	=64	=64	=64
1D	1d	1f	4f
.	.	.	4g
.	.	.	4a
.	.	.	4b-
2E	2G	2g	2cc
2F	2A	4f	[2dd
.	.	4e	.
=65	=65	=65	=65
1G	0B-	2.d	4dd]
.	.	.	4cc
.	.	.	2.b-
.	.	4e	.
2D	.	2f	.
.	.	.	4a
2E	.	4e	[2g
.	.	4d	.
=66	=66	=66	=66
2F	1A	1c	4g]
.	.	.	4f
2F	.	.	2.f
1C	1G	1c	.
.	.	.	8e
.	.	.	8d
.	.	.	2e
=67	=67	=67	=67
0F	0F	0c	0f
==	==	==	==
*-	*-	*-	*-
!!!CDT: 1525/^1526/-1594/2/2
!!!OCY: Italia
!!!AGN: Mass (Paraphrase)
!!!AST: renaissance, vocal
!!!ASW: Hymn
!!!PWK: Masses, Book 5
!!!RNB: Cadence finals: C
!!!YOR: Le Opere Complete, v. 15, p. 1
!!!YOO: Rome, Italy: Fratelli Scalera
!!!END: 1992//
!!!EED: John Miller
!!!YEC: Copyright 2000, John Miller
!!!YEN: United States of America
!!!YEM: Rights to all derivative electronic formats reserved.
!!!YEM: Refer to licensing agreement for further details.
!!!YEM: This file must be accompanied by the licensing agreement.
!!!YEM: A copy of the licensing agreement may be found at http://www.music-cog.ohio-state.edu/HumdrumDatabases/Palestrina/license.txt
!!!EMD: converted to Humdrum by Bret Aarden
